assets/home/icon_notice.svg

<svg class="icon" height="200" p-id="2728" t="1643289859146" version="1.1" viewBox="0 0 1024 1024"
  width="200" xmlns="http://www.w3.org/2000/svg">
  <path
    d="M512.64 0a42.666667 42.666667 0 0 1 42.56 39.466667l0.128 3.2-0.021333 49.92c173.226667 15.573333 307.584 176.576 307.584 370.773333v126.72c0 54.954667 18.176 107.733333 50.602666 147.733333l17.408 21.482667c37.738667 46.549333 8.277333 121.706667-53.610666 121.706667h-188.202667a180.074667 180.074667 0 0 1-345.109333 0H155.733333c-61.888 0-91.349333-75.178667-53.589333-121.706667l17.408-21.504c32.426667-39.978667 50.581333-92.757333 50.581333-147.712v-126.72c0-191.296 130.389333-350.357333 299.84-369.962667V42.666667a42.666667 42.666667 0 0 1 42.666667-42.666667z m83.413333 881.002667h-159.082666a94.656 94.656 0 0 0 159.104 0zM527.765333 176.704H512.64l-0.469333-0.021333h-6.890667c-134.741333 0-246.485333 123.605333-249.728 279.68l-0.085333 7.018666v126.698667c0 74.261333-24.704 146.048-69.610667 201.429333l-3.392 4.138667h668.074667l-3.328-4.117333c-43.2-53.269333-67.712-121.685333-69.546667-192.896l-0.106667-8.554667v-126.72c0-159.36-113.045333-286.656-249.813333-286.656z"
    p-id="2729"></path>
</svg>

<svg class="icon" height="200" viewBox="0 0 1024 1024" width="200" xmlns="http://www.w3.org/2000/svg"><path d="M512.64 0a42.667 42.667 0 0 1 42.56 39.467l.128 3.2-.021 49.92C728.533 108.16 862.89 269.163 862.89 463.36v126.72c0 54.955 18.176 107.733 50.602 147.733l17.408 21.483c37.739 46.55 8.278 121.707-53.61 121.707H689.088a180.075 180.075 0 0 1-345.11 0H155.734c-61.888 0-91.349-75.179-53.589-121.707l17.408-21.504c32.427-39.979 50.581-92.757 50.581-147.712V463.36c0-191.296 130.39-350.357 299.84-369.963v-50.73A42.667 42.667 0 0 1 512.64 0zm83.413 881.003H436.971a94.656 94.656 0 0 0 159.104 0zm-68.288-704.299H512.64l-.47-.021h-6.89c-134.741 0-246.485 123.605-249.728 279.68l-.085 7.018V590.08c0 74.261-24.704 146.048-69.611 201.43l-3.392 4.138h668.075l-3.328-4.117c-43.2-53.27-67.712-121.686-69.547-192.896l-.107-8.555V463.36c0-159.36-113.045-286.656-249.813-286.656z"/></svg>
